public/images/hashed/6bc1635bb76d500049e9e183ea903d9a.svg

<?xml version="1.0" encoding="UTF-8"?>
<svg width="80px" height="80px" viewBox="0 0 80 80" version="1.1" xmlns="http://www.w3.org/2000/svg" xmlns:xlink="http://www.w3.org/1999/xlink">
    <!-- Generator: Sketch 64 (93537) - https://sketch.com -->
    <title>Icon-Architecture/64/Arch_AWS-Key-Management-Services_64</title>
    <desc>Created with Sketch.</desc>
    <defs>
        <linearGradient x1="0%" y1="100%" x2="100%" y2="0%" id="linearGradient-1">
            <stop stop-color="#BD0816" offset="0%"></stop>
            <stop stop-color="#FF5252" offset="100%"></stop>
        </linearGradient>
    </defs>
    <g id="Icon-Architecture/64/Arch_AWS-Key-Management-Services_64" stroke="none" stroke-width="1" fill="none" fill-rule="evenodd">
        <g id="Icon-Architecture-BG/64/Security-Identity-Compliance" fill="url(#linearGradient-1)">
            <rect id="Rectangle" x="0" y="0" width="80" height="80"></rect>
        </g>
        <path d="M51.9968943,52.4963312 L58.9968943,52.4963312 L58.9968943,50.4963312 L51.9968943,50.4963312 L51.9968943,52.4963312 Z M42.9968943,52.4963312 L49.9968943,52.4963312 L49.9968943,50.4963312 L42.9968943,50.4963312 L42.9968943,52.4963312 Z M33.9968943,52.4963312 L40.9968943,52.4963312 L40.9968943,50.4963312 L33.9968943,50.4963312 L33.9968943,52.4963312 Z M44.9968943,44.4963312 C44.9968943,43.3933312 45.8948943,42.4963312 46.9968943,42.4963312 C48.0998943,42.4963312 48.9968943,43.3933312 48.9968943,44.4963312 C48.9968943,45.5993312 48.0998943,46.4963312 46.9968943,46.4963312 C45.8948943,46.4963312 44.9968943,45.5993312 44.9968943,44.4963312 L44.9968943,44.4963312 Z M50.9968943,44.4963312 C50.9968943,42.2903312 49.2038943,40.4963312 46.9968943,40.4963312 C44.7908943,40.4963312 42.9968943,42.2903312 42.9968943,44.4963312 C42.9968943,46.7023312 44.7908943,48.4963312 46.9968943,48.4963312 C49.2038943,48.4963312 50.9968943,46.7023312 50.9968943,44.4963312 L50.9968943,44.4963312 Z M36.9968943,42.4963312 C38.0998943,42.4963312 38.9968943,43.3933312 38.9968943,44.4963312 C38.9968943,45.5993312 38.0998943,46.4963312 36.9968943,46.4963312 C35.8948943,46.4963312 34.9968943,45.5993312 34.9968943,44.4963312 C34.9968943,43.3933312 35.8948943,42.4963312 36.9968943,42.4963312 L36.9968943,42.4963312 Z M36.9968943,48.4963312 C39.2038943,48.4963312 40.9968943,46.7023312 40.9968943,44.4963312 C40.9968943,42.2903312 39.2038943,40.4963312 36.9968943,40.4963312 C34.7908943,40.4963312 32.9968943,42.2903312 32.9968943,44.4963312 C32.9968943,46.7023312 34.7908943,48.4963312 36.9968943,48.4963312 L36.9968943,48.4963312 Z M65.9968943,33.4963312 L65.9968943,56.4963312 C65.9968943,57.0483312 65.5498943,57.4963312 64.9968943,57.4963312 L33.9968943,57.4963312 L33.9968943,55.4963312 L63.9968943,55.4963312 L63.9968943,34.4963312 L41.9968943,34.4963312 L41.9968943,32.4963312 L64.9968943,32.4963312 C65.5498943,32.4963312 65.9968943,32.9443312 65.9968943,33.4963312 L65.9968943,33.4963312 Z M30.6958943,38.5433312 C30.2798943,38.6743312 29.9968943,39.0603312 29.9968943,39.4963312 L29.9968943,60.5363312 L27.5978943,62.5933312 L24.9968943,59.6203312 L24.9968943,56.9963312 C24.9968943,56.7313312 24.8918943,56.4763312 24.7038943,56.2893312 L22.4118943,53.9963312 L24.7038943,51.7033312 C24.8918943,51.5163312 24.9968943,51.2613312 24.9968943,50.9963312 L24.9968943,48.9963312 C24.9968943,48.7313312 24.8918943,48.4763312 24.7038943,48.2893312 L22.4118943,45.9963312 L24.7038943,43.7033312 C24.8918943,43.5163312 24.9968943,43.2613312 24.9968943,42.9963312 L24.9968943,39.5063312 C24.9968943,39.0703312 24.7148943,38.6843312 24.2988943,38.5533312 C19.1568943,36.9233312 16.1168943,31.6343312 17.2298943,26.2493312 C18.0318943,22.3693312 21.0158943,19.2583312 24.8308943,18.3233312 C28.0798943,17.5263312 31.4118943,18.2233312 33.9718943,20.2303312 C36.5298943,22.2373312 37.9968943,25.2503312 37.9968943,28.4963312 C37.9968943,33.0493312 34.9948943,37.1813312 30.6958943,38.5433312 L30.6958943,38.5433312 Z M39.9968943,28.4963312 C39.9968943,24.6323312 38.2508943,21.0453312 35.2058943,18.6563312 C32.1608943,16.2673312 28.2088943,15.4363312 24.3548943,16.3813312 C19.7938943,17.4983312 16.2288943,21.2133312 15.2708943,25.8443312 L15.2708943,25.8453312 C14.0008943,31.9903312 17.2998943,38.0343312 22.9968943,40.2153312 L22.9968943,42.5823312 L20.2898943,45.2893312 C19.8998943,45.6803312 19.8998943,46.3123312 20.2898943,46.7033312 L22.9968943,49.4103312 L22.9968943,50.5823312 L20.2898943,53.2893312 C19.8998943,53.6803312 19.8998943,54.3123312 20.2898943,54.7033312 L22.9968943,57.4103312 L22.9968943,59.9963312 C22.9968943,60.2383312 23.0848943,60.4723312 23.2448943,60.6553312 L26.7448943,64.6553312 C26.9428943,64.8803312 27.2188943,64.9963312 27.4968943,64.9963312 C27.7278943,64.9963312 27.9588943,64.9173312 28.1478943,64.7553312 L31.6478943,61.7553312 C31.8698943,61.5653312 31.9968943,61.2883312 31.9968943,60.9963312 L31.9968943,40.2043312 C36.7428943,38.3723312 39.9968943,33.6623312 39.9968943,28.4963312 L39.9968943,28.4963312 Z M27.4968943,30.8663312 C26.1188943,30.8663312 24.9968943,29.7453312 24.9968943,28.3663312 C24.9968943,26.9883312 26.1188943,25.8663312 27.4968943,25.8663312 C28.8758943,25.8663312 29.9968943,26.9883312 29.9968943,28.3663312 C29.9968943,29.7453312 28.8758943,30.8663312 27.4968943,30.8663312 L27.4968943,30.8663312 Z M27.4968943,23.8663312 C25.0158943,23.8663312 22.9968943,25.8853312 22.9968943,28.3663312 C22.9968943,30.8483312 25.0158943,32.8663312 27.4968943,32.8663312 C29.9788943,32.8663312 31.9968943,30.8483312 31.9968943,28.3663312 C31.9968943,25.8853312 29.9788943,23.8663312 27.4968943,23.8663312 L27.4968943,23.8663312 Z" id="AWS-Key-Management-Services_Icon_64_Squid" fill="#FFFFFF"></path>
    </g>
</svg>

<svg xmlns="http://www.w3.org/2000/svg" width="80" height="80"><defs><linearGradient id="a" x1="0%" x2="100%" y1="100%" y2="0%"><stop offset="0%" stop-color="#BD0816"/><stop offset="100%" stop-color="#FF5252"/></linearGradient></defs><g fill="none" fill-rule="evenodd"><path fill="url(#a)" d="M0 0h80v80H0z"/><path fill="#FFF" d="M51.997 52.496h7v-2h-7v2Zm-9 0h7v-2h-7v2Zm-9 0h7v-2h-7v2Zm11-8c0-1.103.898-2 2-2 1.103 0 2 .897 2 2s-.897 2-2 2c-1.102 0-2-.897-2-2Zm6 0c0-2.206-1.793-4-4-4-2.206 0-4 1.794-4 4s1.794 4 4 4c2.207 0 4-1.794 4-4Zm-14-2c1.103 0 2 .897 2 2s-.897 2-2 2c-1.102 0-2-.897-2-2s.898-2 2-2Zm0 6c2.207 0 4-1.794 4-4s-1.793-4-4-4c-2.206 0-4 1.794-4 4s1.794 4 4 4Zm29-15v23a1 1 0 0 1-1 1h-31v-2h30v-21h-22v-2h23a1 1 0 0 1 1 1Zm-35.301 5.047a1 1 0 0 0-.7.953v21.04l-2.398 2.057-2.601-2.973v-2.624a.997.997 0 0 0-.293-.707l-2.292-2.293 2.292-2.293a.997.997 0 0 0 .293-.707v-2a.997.997 0 0 0-.293-.707l-2.292-2.293 2.292-2.293a.997.997 0 0 0 .293-.707v-3.49a.998.998 0 0 0-.698-.953c-5.142-1.63-8.182-6.919-7.07-12.304.803-3.88 3.787-6.99 7.602-7.926 3.249-.797 6.58-.1 9.14 1.907a10.446 10.446 0 0 1 4.026 8.266c0 4.553-3.002 8.685-7.301 10.047Zm9.3-10.047c0-3.864-1.745-7.45-4.79-9.84-3.045-2.389-6.997-3.22-10.851-2.275-4.561 1.117-8.126 4.832-9.084 9.463v.001C14 31.99 17.3 38.035 22.997 40.215v2.367L20.29 45.29a1 1 0 0 0 0 1.414l2.707 2.707v1.172L20.29 53.29a1 1 0 0 0 0 1.414l2.707 2.707v2.586c0 .242.088.476.248.66l3.5 4a1 1 0 0 0 1.403.1l3.5-3a.998.998 0 0 0 .349-.76V40.204c4.746-1.832 8-6.542 8-11.708Zm-12.5 2.37a2.503 2.503 0 0 1-2.5-2.5c0-1.378 1.123-2.5 2.5-2.5 1.38 0 2.5 1.122 2.5 2.5 0 1.38-1.12 2.5-2.5 2.5Zm0-7a4.505 4.505 0 0 0-4.5 4.5c0 2.482 2.02 4.5 4.5 4.5 2.483 0 4.5-2.018 4.5-4.5 0-2.48-2.017-4.5-4.5-4.5Z"/></g></svg>
